X:6295
T:STMPIE2- Butter'd Pease
O:england
S:Boarding School & Achilles, 1733
Q:1/4=120
L:1/4
M:C|
K:F
Ac2B/A/|Bdd2|Ac2B/A/|BAG2|Ac2B/A/|Bdd2|AcG/A/B|Aee2||Ac2d/e/|\
f/e/f/g/ f2|Ac2B/A/|BGG2|Ac2d/e/|f/e/f/g/ e2|AcG/A/B|AFF2|]
